X: 5
T: Il Bianco Fiore
M: 6/4
L: 1/8
K: F major
P: A
"F"F2E2F2 G2A2B2 | "F"c6 A2B2c2 | "Bb"d4"F"c4"Gm"B4 | "F"A6 G2A4 | "Dm"F2E2F2 G2A2B2 | "F"c6 B2A2G2 | \
"Dm"F4"Csus4"F4"C"E4 | "F"F12 :: 
P: B
"Dm"A4A4G2F2 | "C"E6 D2C4 | "F"c2B2A4G2F2 | "C"E6 D2C4 | \
"F"F2G2A2 G2F2E2 | "Bb"D6 C2D2E2 | "Dm"F4"Csus4"F4"C"E4 | "F"F12 :: 
M: 4/4
P: C
"C"c6B2 | "F"A4 "Dm"F4 | "Gm"G2A2 B2G2 | "F"A4 F4 | "F"c6B2 | "F"A4 G2F2 | \
"C"E4 F4 | "F"F8 :| 

